images/Cyprus_road_sign_mandatory_go_or_right.svg

<svg xmlns="http://www.w3.org/2000/svg" width="599.999" height="599.999"><defs><clipPath id="a"><path d="M.015 205.28h205.27V0H.015v205.28z"/></clipPath></defs><path d="M0 0c56.41 0 102.14-45.731 102.14-102.14 0-56.41-45.731-102.14-102.14-102.14-56.411 0-102.14 45.731-102.14 102.14S-56.411 0 0 0" style="fill:#fff;fill-rule:nonzero" transform="rotate(180 150 .73) scale(2.92279)"/><g clip-path="url(#a)" transform="rotate(180 300 300) scale(2.92279)"><path d="M0 0c56.41 0 102.14-45.731 102.14-102.14 0-56.41-45.731-102.14-102.14-102.14-56.411 0-102.14 45.731-102.14 102.14S-56.411 0 0 0z" style="fill:none;stroke:#1477c6;stroke-width:1;stroke-linecap:butt;stroke-linejoin:miter;stroke-miterlimit:4;stroke-dasharray:none" transform="translate(102.642 204.783)"/></g><path d="M0 0c56.41 0 102.14-45.731 102.14-102.14 0-56.41-45.731-102.14-102.14-102.14-56.411 0-102.14 45.731-102.14 102.14S-56.411 0 0 0" style="fill:#fff;fill-rule:nonzero" transform="rotate(180 150 .73) scale(2.92279)"/><path d="M113.725 103.798c-164.875 0-298.538 133.663-298.538 298.538S-51.15 700.874 113.725 700.874s298.538-133.663 298.538-298.538S278.6 103.798 113.725 103.798z" style="fill:none;stroke:#0079c1;stroke-width:2.92279005;stroke-linecap:butt;stroke-linejoin:miter;stroke-miterlimit:4;stroke-opacity:1;stroke-dasharray:none" transform="translate(186.275 -102.337)"/><path d="M113.725 116.099c-158.087 0-286.237 128.15-286.237 286.237 0 158.087 128.15 286.237 286.237 286.237 158.087 0 286.238-128.15 286.238-286.237 0-158.087-128.15-286.237-286.238-286.237" style="fill:#0079c1;fill-opacity:1;fill-rule:nonzero" transform="translate(186.275 -102.337)"/><path style="fill:#fff;fill-opacity:1;fill-rule:evenodd;stroke:none" d="M0 0v-7.916l-6.08 3.959L0 0z" transform="rotate(179.98 190.055 117.444) scale(16.57607)"/><path style="fill:#fff;fill-opacity:1;fill-rule:evenodd;stroke:none" d="M0 0h-7.915l3.959 6.08L0 0z" transform="rotate(179.98 96.058 88.725) scale(16.57607)"/><path style="fill:#fff;fill-opacity:1;fill-rule:evenodd;stroke:none" d="m0 0-1.223-19.74h5.409L2.763.277 0 0z" transform="rotate(179.98 140.638 84.393) scale(16.57607)"/><path style="fill:#fff;fill-opacity:1;fill-rule:evenodd;stroke:none" d="M0 0v-3.32l6.75-.056.197 3.525L0 0z" transform="rotate(179.98 195.28 137.074) scale(16.57607)"/></svg>

<?xml version="1.0" encoding="UTF-8" standalone="no"?>
<!-- Created with Inkscape (http://www.inkscape.org/) -->

<svg
   xmlns:dc="http://purl.org/dc/elements/1.1/"
   xmlns:cc="http://creativecommons.org/ns#"
   xmlns:rdf="http://www.w3.org/1999/02/22-rdf-syntax-ns#"
   xmlns:svg="http://www.w3.org/2000/svg"
   xmlns="http://www.w3.org/2000/svg"
   xmlns:sodipodi="http://sodipodi.sourceforge.net/DTD/sodipodi-0.dtd"
   xmlns:inkscape="http://www.inkscape.org/namespaces/inkscape"
   width="599.99878"
   height="599.99878"
   id="svg6419"
   version="1.1"
   inkscape:version="0.47 r22583"
   sodipodi:docname="Cyprus road sign mandatory go or left.svg">
  <defs
     id="defs6421">
    <inkscape:perspective
       sodipodi:type="inkscape:persp3d"
       inkscape:vp_x="0 : 526.18109 : 1"
       inkscape:vp_y="0 : 1000 : 0"
       inkscape:vp_z="744.09448 : 526.18109 : 1"
       inkscape:persp3d-origin="372.04724 : 350.78739 : 1"
       id="perspective6427" />
    <inkscape:perspective
       id="perspective6455"
       inkscape:persp3d-origin="300 : 200 : 1"
       inkscape:vp_z="600 : 300 : 1"
       inkscape:vp_y="0 : 1000 : 0"
       inkscape:vp_x="0 : 300 : 1"
       sodipodi:type="inkscape:persp3d" />
    <clipPath
       id="clipPath20">
      <path
         d="m 0.014999,205.28 205.270001,0 0,-205.28 -205.270001,0 0,205.28 z"
         id="path9" />
    </clipPath>
    <inkscape:perspective
       id="perspective6487"
       inkscape:persp3d-origin="0.5 : 0.33333333 : 1"
       inkscape:vp_z="1 : 0.5 : 1"
       inkscape:vp_y="0 : 1000 : 0"
       inkscape:vp_x="0 : 0.5 : 1"
       sodipodi:type="inkscape:persp3d" />
    <clipPath
       clipPathUnits="userSpaceOnUse"
       id="clipPath5883">
      <path
         d="m 233.519,209.338 34.845,0 0,34.016 -34.845,0 0,-34.016 z"
         id="path5885" />
    </clipPath>
    <inkscape:perspective
       id="perspective7191"
       inkscape:persp3d-origin="0.5 : 0.33333333 : 1"
       inkscape:vp_z="1 : 0.5 : 1"
       inkscape:vp_y="0 : 1000 : 0"
       inkscape:vp_x="0 : 0.5 : 1"
       sodipodi:type="inkscape:persp3d" />
    <clipPath
       clipPathUnits="userSpaceOnUse"
       id="clipPath6115">
      <path
         d="m 112.397,129.449 34.845,0 0,34.016 -34.845,0 0,-34.016 z"
         id="path6117" />
    </clipPath>
  </defs>
  <sodipodi:namedview
     id="base"
     pagecolor="#ffffff"
     bordercolor="#666666"
     borderopacity="1.0"
     inkscape:pageopacity="0.0"
     inkscape:pageshadow="2"
     inkscape:zoom="0.41767578"
     inkscape:cx="561.27483"
     inkscape:cy="169.97367"
     inkscape:document-units="px"
     inkscape:current-layer="layer1"
     showgrid="false"
     inkscape:window-width="1600"
     inkscape:window-height="838"
     inkscape:window-x="-8"
     inkscape:window-y="-8"
     inkscape:window-maximized="1" />
  <metadata
     id="metadata6424">
    <rdf:RDF>
      <cc:Work
         rdf:about="">
        <dc:format>image/svg+xml</dc:format>
        <dc:type
           rdf:resource="http://purl.org/dc/dcmitype/StillImage" />
        <dc:title></dc:title>
      </cc:Work>
    </rdf:RDF>
  </metadata>
  <g
     inkscape:label="Livello 1"
     inkscape:groupmode="layer"
     id="layer1"
     transform="translate(186.27483,-102.33706)">
    <g
       transform="matrix(-2.92279,0,0,-2.92279,113.72357,103.79732)"
       id="g13">
      <path
         d="m 0,0 c 56.41,0 102.14,-45.731 102.14,-102.14 0,-56.41 -45.731,-102.14 -102.14,-102.14 -56.411,0 -102.14,45.731 -102.14,102.14 C -102.14,-45.731 -56.411,0 0,0"
         style="fill:#ffffff;fill-rule:nonzero"
         id="path15" />
    </g>
    <g
       transform="matrix(-2.92279,0,0,-2.92279,413.72456,702.33591)"
       id="g17">
      <g
         clip-path="url(#clipPath20)"
         id="g19">
        <g
           transform="translate(102.642,204.783)"
           id="g21">
          <path
             d="m 0,0 c 56.41,0 102.14,-45.731 102.14,-102.14 0,-56.41 -45.731,-102.14 -102.14,-102.14 -56.411,0 -102.14,45.731 -102.14,102.14 C -102.14,-45.731 -56.411,0 0,0 z"
             style="fill:none;stroke:#1477c6;stroke-width:1;stroke-linecap:butt;stroke-linejoin:miter;stroke-miterlimit:4;stroke-dasharray:none"
             id="path23" />
        </g>
      </g>
    </g>
    <g
       transform="matrix(-2.92279,0,0,-2.92279,113.72357,103.79732)"
       id="g37">
      <path
         d="m 0,0 c 56.41,0 102.14,-45.731 102.14,-102.14 0,-56.41 -45.731,-102.14 -102.14,-102.14 -56.411,0 -102.14,45.731 -102.14,102.14 C -102.14,-45.731 -56.411,0 0,0"
         style="fill:#ffffff;fill-rule:nonzero"
         id="path39" />
    </g>
    <path
       d="m 113.72457,103.79846 c -164.875,0 -298.538,133.663 -298.538,298.538 0,164.875 133.663,298.538 298.538,298.538 164.875,0 298.538,-133.663 298.538,-298.538 0,-164.875 -133.663,-298.538 -298.538,-298.538 z"
       style="fill:none;stroke:#0079c1;stroke-width:2.92279005;stroke-linecap:butt;stroke-linejoin:miter;stroke-miterlimit:4;stroke-opacity:1;stroke-dasharray:none"
       id="path41" />
    <path
       d="m 113.72457,116.09851 c -158.087,0 -286.237,128.15 -286.237,286.237 0,158.087 128.15,286.237 286.237,286.237 158.087,0 286.238,-128.15 286.238,-286.237 0,-158.087 -128.15,-286.237 -286.238,-286.237"
       style="fill:#0079c1;fill-opacity:1;fill-rule:nonzero"
       id="path43" />
    <g
       id="g7265"
       transform="matrix(-1,0,0,1,-442.92729,-126.89268)">
      <g
         transform="matrix(16.576069,0,0,-16.576069,-636.76293,464.11793)"
         id="g6123">
        <path
           id="path6125"
           style="fill:#ffffff;fill-opacity:1;fill-rule:evenodd;stroke:none"
           d="M 0,0 0,-7.916 -6.08,-3.957 0,0 z" />
      </g>
      <g
         transform="matrix(16.576069,0,0,-16.576069,-448.76892,406.6802)"
         id="g6127">
        <path
           id="path6129"
           style="fill:#ffffff;fill-opacity:1;fill-rule:evenodd;stroke:none"
           d="M 0,0 -7.915,0 -3.956,6.08 0,0 z" />
      </g>
      <g
         transform="matrix(16.576069,0,0,-16.576069,-537.92828,398.01605)"
         id="g6131">
        <path
           id="path6133"
           style="fill:#ffffff;fill-opacity:1;fill-rule:evenodd;stroke:none"
           d="m 0,0 -1.223,-19.74 5.409,0 L 2.763,0.277 0,0 z" />
      </g>
      <g
         transform="matrix(16.576069,0,0,-16.576069,-647.21099,503.37686)"
         id="g6135">
        <path
           id="path6137"
           style="fill:#ffffff;fill-opacity:1;fill-rule:evenodd;stroke:none"
           d="M 0,0 0,-3.32 6.75,-3.376 6.947,0.149 0,0 z" />
      </g>
    </g>
  </g>
</svg>
